X:1
T:17. Fals og Fusk
T:17. Fals og Fusk
T:Symra
T:Chr. Haslerud
T:Ivar Aasen
C:Chr. Haslerud
Z:Ivar Aasen
%%score [ 1 2 3 4 ]
L:1/8
Q:1/4=71
M:4/4
K:Eb
V:1 treble nm="Soprano"
V:2 treble nm="Alto"
V:3 treble-8 nm="Tenor"
V:4 bass nm="Bass"
V:1
"^Langsomt" (C>D) | E3 E E2 D2 | C2 A2 G z (G>=B) | c3 d e2 d2 | c2 A2 G z!p! (G>A) | B2 B2 e2 c2 | %6
w: Med _|Fals og Fusk er|Ver- di full, og _|mangt eit Korn læst|ve- ra Gull; men _|naar ein ser det|
 B4 G z (F>G) | A2 A2 B2 A2 | (G>F) (G>A) G z (C>D) |!<(! E3 E!<)! F3 F | G2 c2 =B z!f! (c>d) | %11
w: nær- re, so _|var det verdt eit|min- * dre _ Rop: d'er _|ber- re Graa- stein|alt i Hop, og _|
 e3 e f2 e2 | d4 c2 |] %13
w: stun- dom no- kot|ver- re.|
V:2
 C2 | C3 C C2 =B,2 | C2 =B,2 C z (D>G) | G3 F E2 F2 | G2 F2 D z!p! E2 | E2 G2 A2 A2 | %6
w: Med|Fals og Fusk er|Ver- di full, og _|mangt eit Korn læst|ve- ra Gull; men|naar ein ser det|
 G4 E z (D>E) | F2 (FE) D2 D2 | (E>D) (E>F) E z C2 |!<(! C3 C!<)! C3 C | D2 G2 G z!f! (G>F) | %11
w: nær- re, so _|var det _ verdt eit|min- * dre _ Rop: d'er|ber- re Graa- stein|alt i Hop, og _|
 E3 G A2 G2 | F4 E2 |] %13
w: stun- dom no- kot|ver- re.|
V:3
 (E>F) | G3 G G2 G2 | G2 F2 G z (=B>d) | G3 =B c2 B2 | G2 c2 =B z!p! _B2 | B2 e2 e2 e2 | %6
w: Med _|Fals og Fusk er|Ver- di full, og _|mangt eit Korn læst|ve- ra Gull; men|naar ein ser det|
 e4 B z B2 | B2 F2 F2 B2 | B2 B2 B z A2 |!<(! A3 A!<)! c3 c | =B2 e2 d z!f! (G>B) | c3 c c2 c2 | %12
w: nær- re, so|var det verdt eit|min- dre Rop: d'er|ber- re Graa- stein|alt i Hop, og _|stun- dom no- kot|
 =B4 G2 |] %13
w: ver- re.|
V:4
 C,2 | C,3 E, G,2 F,2 | E,2 D,2 E, z (G,>F,) | E,3 D, C,2 D,2 | E,2 F,2 G, z!p! (E,>F,) | %5
w: Med|Fals og Fusk er|Ver- di full, og _|mangt eit Korn læst|ve- ra Gull; men _|
 G,2 E,2 C2 A,2 | E,4 E, z (A,>G,) | F,2 D,2 B,,2 B,,2 | E,2 (E,>D,) E,2 A,2 | %9
w: naar ein ser det|nær- re, so _|var det verdt eit|min- dre _ Rop: d'er|
!<(! A,3 A,!<)! A,3 A, | G,2 G,2 G, z!f! (E,>D,) | C,3 C, F,2 F,2 | G,4 C,2 |] %13
w: ber- re Graa- stein|alt i Hop, og _|stun- dom no- kot|ver- re.|

